public/favicon.svg

<svg xmlns="http://www.w3.org/2000/svg" width="58" height="55" viewBox="0 0 58 55" fill="none">
    <script xmlns="" />
    <g filter="url(#filter0_f_693_14740)">
        <path
            d="M29 43.2447L26.39 40.9494C23.36 38.2714 20.855 35.9613 18.875 34.0191C16.895 32.0769 15.32 30.333 14.15 28.7874C12.98 27.2431 12.1628 25.8235 11.6984 24.5287C11.234 23.2338 11.0012 21.9096 11 20.5559C11 17.7897 11.945 15.4796 13.835 13.6257C15.725 11.7717 18.08 10.8447 20.9 10.8447C22.46 10.8447 23.945 11.1684 25.355 11.8158C26.765 12.4633 27.98 13.3755 29 14.5526C30.02 13.3755 31.235 12.4633 32.645 11.8158C34.055 11.1684 35.54 10.8447 37.1 10.8447C39.92 10.8447 42.275 11.7717 44.165 13.6257C46.055 15.4796 47 17.7897 47 20.5559C47 21.9096 46.7672 23.2338 46.3016 24.5287C45.836 25.8235 45.0188 27.2431 43.85 28.7874C42.68 30.333 41.105 32.0769 39.125 34.0191C37.145 35.9613 34.64 38.2714 31.61 40.9494L29 43.2447Z"
            fill="url(#paint0_linear_693_14740)" />
        <path
            d="M29 43.2447L26.39 40.9494C23.36 38.2714 20.855 35.9613 18.875 34.0191C16.895 32.0769 15.32 30.333 14.15 28.7874C12.98 27.2431 12.1628 25.8235 11.6984 24.5287C11.234 23.2338 11.0012 21.9096 11 20.5559C11 17.7897 11.945 15.4796 13.835 13.6257C15.725 11.7717 18.08 10.8447 20.9 10.8447C22.46 10.8447 23.945 11.1684 25.355 11.8158C26.765 12.4633 27.98 13.3755 29 14.5526C30.02 13.3755 31.235 12.4633 32.645 11.8158C34.055 11.1684 35.54 10.8447 37.1 10.8447C39.92 10.8447 42.275 11.7717 44.165 13.6257C46.055 15.4796 47 17.7897 47 20.5559C47 21.9096 46.7672 23.2338 46.3016 24.5287C45.836 25.8235 45.0188 27.2431 43.85 28.7874C42.68 30.333 41.105 32.0769 39.125 34.0191C37.145 35.9613 34.64 38.2714 31.61 40.9494L29 43.2447Z"
            fill="url(#paint1_radial_693_14740)" fill-opacity="0.7" />
        <path
            d="M29 43.2447L26.39 40.9494C23.36 38.2714 20.855 35.9613 18.875 34.0191C16.895 32.0769 15.32 30.333 14.15 28.7874C12.98 27.2431 12.1628 25.8235 11.6984 24.5287C11.234 23.2338 11.0012 21.9096 11 20.5559C11 17.7897 11.945 15.4796 13.835 13.6257C15.725 11.7717 18.08 10.8447 20.9 10.8447C22.46 10.8447 23.945 11.1684 25.355 11.8158C26.765 12.4633 27.98 13.3755 29 14.5526C30.02 13.3755 31.235 12.4633 32.645 11.8158C34.055 11.1684 35.54 10.8447 37.1 10.8447C39.92 10.8447 42.275 11.7717 44.165 13.6257C46.055 15.4796 47 17.7897 47 20.5559C47 21.9096 46.7672 23.2338 46.3016 24.5287C45.836 25.8235 45.0188 27.2431 43.85 28.7874C42.68 30.333 41.105 32.0769 39.125 34.0191C37.145 35.9613 34.64 38.2714 31.61 40.9494L29 43.2447Z"
            fill="url(#paint2_radial_693_14740)" fill-opacity="0.7" />
    </g>
    <path
        d="M29.001 42.945L26.536 40.735C23.6743 38.1567 21.3085 35.9325 19.4385 34.0625C17.5685 32.1925 16.081 30.5135 14.976 29.0254C13.871 27.5385 13.0992 26.1717 12.6606 24.925C12.222 23.6783 12.0021 22.4033 12.001 21.1C12.001 18.4367 12.8935 16.2125 14.6785 14.4275C16.4635 12.6425 18.6876 11.75 21.351 11.75C22.8243 11.75 24.2268 12.0617 25.5585 12.685C26.8901 13.3083 28.0376 14.1867 29.001 15.32C29.9643 14.1867 31.1118 13.3083 32.4435 12.685C33.7751 12.0617 35.1776 11.75 36.651 11.75C39.3143 11.75 41.5385 12.6425 43.3235 14.4275C45.1085 16.2125 46.001 18.4367 46.001 21.1C46.001 22.4033 45.7811 23.6783 45.3414 24.925C44.9016 26.1717 44.1298 27.5385 43.026 29.0254C41.921 30.5135 40.4335 32.1925 38.5635 34.0625C36.6935 35.9325 34.3276 38.1567 31.466 40.735L29.001 42.945Z"
        fill="#141215" />
    <path
        d="M29.001 42.945L26.536 40.735C23.6743 38.1567 21.3085 35.9325 19.4385 34.0625C17.5685 32.1925 16.081 30.5135 14.976 29.0254C13.871 27.5385 13.0992 26.1717 12.6606 24.925C12.222 23.6783 12.0021 22.4033 12.001 21.1C12.001 18.4367 12.8935 16.2125 14.6785 14.4275C16.4635 12.6425 18.6876 11.75 21.351 11.75C22.8243 11.75 24.2268 12.0617 25.5585 12.685C26.8901 13.3083 28.0376 14.1867 29.001 15.32C29.9643 14.1867 31.1118 13.3083 32.4435 12.685C33.7751 12.0617 35.1776 11.75 36.651 11.75C39.3143 11.75 41.5385 12.6425 43.3235 14.4275C45.1085 16.2125 46.001 18.4367 46.001 21.1C46.001 22.4033 45.7811 23.6783 45.3414 24.925C44.9016 26.1717 44.1298 27.5385 43.026 29.0254C41.921 30.5135 40.4335 32.1925 38.5635 34.0625C36.6935 35.9325 34.3276 38.1567 31.466 40.735L29.001 42.945Z"
        fill="url(#paint3_linear_693_14740)" />
    <path
        d="M29.001 42.945L26.536 40.735C23.6743 38.1567 21.3085 35.9325 19.4385 34.0625C17.5685 32.1925 16.081 30.5135 14.976 29.0254C13.871 27.5385 13.0992 26.1717 12.6606 24.925C12.222 23.6783 12.0021 22.4033 12.001 21.1C12.001 18.4367 12.8935 16.2125 14.6785 14.4275C16.4635 12.6425 18.6876 11.75 21.351 11.75C22.8243 11.75 24.2268 12.0617 25.5585 12.685C26.8901 13.3083 28.0376 14.1867 29.001 15.32C29.9643 14.1867 31.1118 13.3083 32.4435 12.685C33.7751 12.0617 35.1776 11.75 36.651 11.75C39.3143 11.75 41.5385 12.6425 43.3235 14.4275C45.1085 16.2125 46.001 18.4367 46.001 21.1C46.001 22.4033 45.7811 23.6783 45.3414 24.925C44.9016 26.1717 44.1298 27.5385 43.026 29.0254C41.921 30.5135 40.4335 32.1925 38.5635 34.0625C36.6935 35.9325 34.3276 38.1567 31.466 40.735L29.001 42.945Z"
        fill="url(#paint4_radial_693_14740)" fill-opacity="0.7" />
    <path
        d="M29.001 42.945L26.536 40.735C23.6743 38.1567 21.3085 35.9325 19.4385 34.0625C17.5685 32.1925 16.081 30.5135 14.976 29.0254C13.871 27.5385 13.0992 26.1717 12.6606 24.925C12.222 23.6783 12.0021 22.4033 12.001 21.1C12.001 18.4367 12.8935 16.2125 14.6785 14.4275C16.4635 12.6425 18.6876 11.75 21.351 11.75C22.8243 11.75 24.2268 12.0617 25.5585 12.685C26.8901 13.3083 28.0376 14.1867 29.001 15.32C29.9643 14.1867 31.1118 13.3083 32.4435 12.685C33.7751 12.0617 35.1776 11.75 36.651 11.75C39.3143 11.75 41.5385 12.6425 43.3235 14.4275C45.1085 16.2125 46.001 18.4367 46.001 21.1C46.001 22.4033 45.7811 23.6783 45.3414 24.925C44.9016 26.1717 44.1298 27.5385 43.026 29.0254C41.921 30.5135 40.4335 32.1925 38.5635 34.0625C36.6935 35.9325 34.3276 38.1567 31.466 40.735L29.001 42.945Z"
        fill="url(#paint5_radial_693_14740)" fill-opacity="0.7" />
    <path
        d="M15.4574 28.6676L15.4573 28.6675C14.375 27.2111 13.6387 25.8979 13.2263 24.7258C12.8099 23.5421 12.6018 22.3343 12.6007 21.0997C12.6008 18.5859 13.4368 16.5174 15.1025 14.8517C16.7683 13.1859 18.8368 12.3499 21.3507 12.3499C22.7363 12.3499 24.052 12.6424 25.3039 13.2284C26.5567 13.8148 27.6353 14.64 28.5436 15.7085L29.0007 16.2464L29.4579 15.7085C30.3662 14.64 31.4448 13.8148 32.6976 13.2284C33.9495 12.6424 35.2651 12.3499 36.6507 12.3499C39.1647 12.3499 41.2332 13.1859 42.899 14.8517C44.5647 16.5175 45.4007 18.586 45.4007 21.0999C45.4007 22.3343 45.1927 23.5419 44.7753 24.7254C44.3617 25.8978 43.6253 27.2112 42.544 28.6676C41.4622 30.1245 39.9962 31.781 38.139 33.6382C36.2789 35.4983 33.9213 37.7149 31.0643 40.289C31.0642 40.2891 31.0642 40.2891 31.0641 40.2892L29.0007 42.1391L26.9374 40.2892C26.9372 40.2891 26.9371 40.2889 26.937 40.2888C24.0801 37.7148 21.7226 35.4982 19.8625 33.6382C18.0053 31.781 16.5393 30.1245 15.4574 28.6676Z"
        stroke="white" stroke-opacity="0.3" stroke-width="1.2" />
    <defs>
        <filter id="filter0_f_693_14740" x="0.2" y="0.0447264" width="57.6" height="54" filterUnits="userSpaceOnUse"
            color-interpolation-filters="sRGB">
            <feFlood flood-opacity="0" result="BackgroundImageFix" />
            <feBlend mode="normal" in="SourceGraphic" in2="BackgroundImageFix" result="shape" />
            <feGaussianBlur stdDeviation="5.4" result="effect1_foregroundBlur_693_14740" />
        </filter>
        <linearGradient id="paint0_linear_693_14740" x1="29" y1="10.8447" x2="29" y2="43.2447"
            gradientUnits="userSpaceOnUse">
            <stop stop-color="#BD34FE" />
            <stop offset="1" stop-color="#AD00FF" stop-opacity="0.24" />
        </linearGradient>
        <radialGradient id="paint1_radial_693_14740" cx="0" cy="0" r="1" gradientUnits="userSpaceOnUse"
            gradientTransform="translate(40.4345 13.6435) rotate(115.368) scale(29.6563 32.7229)">
            <stop stop-color="#FF9CF5" />
            <stop offset="1" stop-color="#FFBFF9" stop-opacity="0" />
        </radialGradient>
        <radialGradient id="paint2_radial_693_14740" cx="0" cy="0" r="1" gradientUnits="userSpaceOnUse"
            gradientTransform="translate(11.2109 19.2521) rotate(23.4546) scale(36.0107 38.7396)">
            <stop stop-color="white" />
            <stop offset="1" stop-color="white" stop-opacity="0" />
        </radialGradient>
        <linearGradient id="paint3_linear_693_14740" x1="29.001" y1="11.75" x2="29.001" y2="42.945"
            gradientUnits="userSpaceOnUse">
            <stop stop-color="#BD34FE" />
            <stop offset="1" stop-color="#AD00FF" stop-opacity="0.24" />
        </linearGradient>
        <radialGradient id="paint4_radial_693_14740" cx="0" cy="0" r="1" gradientUnits="userSpaceOnUse"
            gradientTransform="translate(39.8002 14.4447) rotate(114.944) scale(28.4542 31.0127)">
            <stop stop-color="#FF9CF5" />
            <stop offset="1" stop-color="#FFBFF9" stop-opacity="0" />
        </radialGradient>
        <radialGradient id="paint5_radial_693_14740" cx="0" cy="0" r="1" gradientUnits="userSpaceOnUse"
            gradientTransform="translate(12.2002 19.8447) rotate(23.8602) scale(34.1157 37.1833)">
            <stop stop-color="white" />
            <stop offset="1" stop-color="white" stop-opacity="0" />
        </radialGradient>
    </defs>
    <script xmlns="" />
</svg>

<svg xmlns="http://www.w3.org/2000/svg" width="58" height="55" viewBox="0 0 58 55" fill="none"><script/><g filter="url(#a)"><path d="m29 43.245-2.61-2.296c-3.03-2.678-5.535-4.988-7.515-6.93-1.98-1.942-3.555-3.686-4.725-5.232-1.17-1.544-1.987-2.963-2.452-4.258A11.716 11.716 0 0 1 11 20.556c0-2.766.945-5.076 2.835-6.93 1.89-1.854 4.245-2.781 7.065-2.781 1.56 0 3.045.323 4.455.97 1.41.648 2.625 1.56 3.645 2.738a10.653 10.653 0 0 1 3.645-2.737 10.554 10.554 0 0 1 4.455-.971c2.82 0 5.175.927 7.065 2.78C46.055 15.48 47 17.79 47 20.556c0 1.355-.233 2.679-.698 3.974-.466 1.294-1.283 2.714-2.452 4.258-1.17 1.546-2.745 3.29-4.725 5.232-1.98 1.942-4.485 4.252-7.515 6.93L29 43.245z" fill="url(#b)"/><path d="m29 43.245-2.61-2.296c-3.03-2.678-5.535-4.988-7.515-6.93-1.98-1.942-3.555-3.686-4.725-5.232-1.17-1.544-1.987-2.963-2.452-4.258A11.716 11.716 0 0 1 11 20.556c0-2.766.945-5.076 2.835-6.93 1.89-1.854 4.245-2.781 7.065-2.781 1.56 0 3.045.323 4.455.97 1.41.648 2.625 1.56 3.645 2.738a10.653 10.653 0 0 1 3.645-2.737 10.554 10.554 0 0 1 4.455-.971c2.82 0 5.175.927 7.065 2.78C46.055 15.48 47 17.79 47 20.556c0 1.355-.233 2.679-.698 3.974-.466 1.294-1.283 2.714-2.452 4.258-1.17 1.546-2.745 3.29-4.725 5.232-1.98 1.942-4.485 4.252-7.515 6.93L29 43.245z" fill="url(#c)" fill-opacity=".7"/><path d="m29 43.245-2.61-2.296c-3.03-2.678-5.535-4.988-7.515-6.93-1.98-1.942-3.555-3.686-4.725-5.232-1.17-1.544-1.987-2.963-2.452-4.258A11.716 11.716 0 0 1 11 20.556c0-2.766.945-5.076 2.835-6.93 1.89-1.854 4.245-2.781 7.065-2.781 1.56 0 3.045.323 4.455.97 1.41.648 2.625 1.56 3.645 2.738a10.653 10.653 0 0 1 3.645-2.737 10.554 10.554 0 0 1 4.455-.971c2.82 0 5.175.927 7.065 2.78C46.055 15.48 47 17.79 47 20.556c0 1.355-.233 2.679-.698 3.974-.466 1.294-1.283 2.714-2.452 4.258-1.17 1.546-2.745 3.29-4.725 5.232-1.98 1.942-4.485 4.252-7.515 6.93L29 43.245z" fill="url(#d)" fill-opacity=".7"/></g><path d="m29.001 42.945-2.465-2.21c-2.862-2.578-5.228-4.803-7.098-6.672-1.87-1.87-3.357-3.55-4.462-5.038-1.105-1.486-1.877-2.853-2.315-4.1A11.476 11.476 0 0 1 12 21.1c0-2.663.893-4.888 2.678-6.673 1.784-1.784 4.009-2.677 6.672-2.677 1.473 0 2.876.312 4.207.935A10.081 10.081 0 0 1 29 15.32a10.08 10.08 0 0 1 3.442-2.635 9.807 9.807 0 0 1 4.208-.935c2.663 0 4.887.893 6.672 2.678C45.107 16.212 46 18.437 46 21.1c0 1.303-.22 2.578-.66 3.825-.44 1.247-1.211 2.613-2.315 4.1-1.105 1.489-2.593 3.168-4.463 5.038s-4.235 4.094-7.097 6.672L29 42.945z" fill="#141215"/><path d="m29.001 42.945-2.465-2.21c-2.862-2.578-5.228-4.803-7.098-6.672-1.87-1.87-3.357-3.55-4.462-5.038-1.105-1.486-1.877-2.853-2.315-4.1A11.476 11.476 0 0 1 12 21.1c0-2.663.893-4.888 2.678-6.673 1.784-1.784 4.009-2.677 6.672-2.677 1.473 0 2.876.312 4.207.935A10.081 10.081 0 0 1 29 15.32a10.08 10.08 0 0 1 3.442-2.635 9.807 9.807 0 0 1 4.208-.935c2.663 0 4.887.893 6.672 2.678C45.107 16.212 46 18.437 46 21.1c0 1.303-.22 2.578-.66 3.825-.44 1.247-1.211 2.613-2.315 4.1-1.105 1.489-2.593 3.168-4.463 5.038s-4.235 4.094-7.097 6.672L29 42.945z" fill="url(#e)"/><path d="m29.001 42.945-2.465-2.21c-2.862-2.578-5.228-4.803-7.098-6.672-1.87-1.87-3.357-3.55-4.462-5.038-1.105-1.486-1.877-2.853-2.315-4.1A11.476 11.476 0 0 1 12 21.1c0-2.663.893-4.888 2.678-6.673 1.784-1.784 4.009-2.677 6.672-2.677 1.473 0 2.876.312 4.207.935A10.081 10.081 0 0 1 29 15.32a10.08 10.08 0 0 1 3.442-2.635 9.807 9.807 0 0 1 4.208-.935c2.663 0 4.887.893 6.672 2.678C45.107 16.212 46 18.437 46 21.1c0 1.303-.22 2.578-.66 3.825-.44 1.247-1.211 2.613-2.315 4.1-1.105 1.489-2.593 3.168-4.463 5.038s-4.235 4.094-7.097 6.672L29 42.945z" fill="url(#f)" fill-opacity=".7"/><path d="m29.001 42.945-2.465-2.21c-2.862-2.578-5.228-4.803-7.098-6.672-1.87-1.87-3.357-3.55-4.462-5.038-1.105-1.486-1.877-2.853-2.315-4.1A11.476 11.476 0 0 1 12 21.1c0-2.663.893-4.888 2.678-6.673 1.784-1.784 4.009-2.677 6.672-2.677 1.473 0 2.876.312 4.207.935A10.081 10.081 0 0 1 29 15.32a10.08 10.08 0 0 1 3.442-2.635 9.807 9.807 0 0 1 4.208-.935c2.663 0 4.887.893 6.672 2.678C45.107 16.212 46 18.437 46 21.1c0 1.303-.22 2.578-.66 3.825-.44 1.247-1.211 2.613-2.315 4.1-1.105 1.489-2.593 3.168-4.463 5.038s-4.235 4.094-7.097 6.672L29 42.945z" fill="url(#g)" fill-opacity=".7"/><path d="M15.457 28.668c-1.082-1.457-1.818-2.77-2.23-3.942A10.878 10.878 0 0 1 12.6 21.1c0-2.514.836-4.583 2.501-6.248 1.666-1.666 3.735-2.502 6.249-2.502 1.385 0 2.701.292 3.953.878a9.48 9.48 0 0 1 3.24 2.48l.457.538.457-.537a9.48 9.48 0 0 1 3.24-2.48 9.207 9.207 0 0 1 3.953-.88c2.514 0 4.582.837 6.248 2.503 1.666 1.665 2.502 3.734 2.502 6.248 0 1.234-.208 2.442-.626 3.625-.413 1.173-1.15 2.486-2.231 3.943-1.082 1.457-2.548 3.113-4.405 4.97-1.86 1.86-4.218 4.077-7.075 6.651L29 42.139l-2.064-1.85c-2.857-2.574-5.214-4.79-7.075-6.65-1.857-1.858-3.323-3.515-4.405-4.971z" stroke="#fff" stroke-opacity=".3" stroke-width="1.2"/><defs><radialGradient id="c" cx="0" cy="0" r="1" gradientUnits="userSpaceOnUse" gradientTransform="matrix(-12.70566 26.79668 -29.56759 -14.01949 40.434 13.643)"><stop stop-color="#FF9CF5"/><stop offset="1" stop-color="#FFBFF9" stop-opacity="0"/></radialGradient><radialGradient id="d" cx="0" cy="0" r="1" gradientUnits="userSpaceOnUse" gradientTransform="matrix(33.03524 14.3333 -15.41947 35.53866 11.211 19.253)"><stop stop-color="#fff"/><stop offset="1" stop-color="#fff" stop-opacity="0"/></radialGradient><radialGradient id="f" cx="0" cy="0" r="1" gradientUnits="userSpaceOnUse" gradientTransform="rotate(114.944 15.294 19.914) scale(28.4542 31.0127)"><stop stop-color="#FF9CF5"/><stop offset="1" stop-color="#FFBFF9" stop-opacity="0"/></radialGradient><radialGradient id="g" cx="0" cy="0" r="1" gradientUnits="userSpaceOnUse" gradientTransform="rotate(23.86 -40.863 38.794) scale(34.1157 37.1833)"><stop stop-color="#fff"/><stop offset="1" stop-color="#fff" stop-opacity="0"/></radialGradient><linearGradient id="b" x1="29" y1="10.845" x2="29" y2="43.245" gradientUnits="userSpaceOnUse"><stop stop-color="#BD34FE"/><stop offset="1" stop-color="#AD00FF" stop-opacity=".24"/></linearGradient><linearGradient id="e" x1="29.001" y1="11.75" x2="29.001" y2="42.945" gradientUnits="userSpaceOnUse"><stop stop-color="#BD34FE"/><stop offset="1" stop-color="#AD00FF" stop-opacity=".24"/></linearGradient><filter id="a" x=".2" y=".045" width="57.6" height="54" filterUnits="userSpaceOnUse" color-interpolation-filters="sRGB"><feFlood flood-opacity="0" result="BackgroundImageFix"/><feBlend in="SourceGraphic" in2="BackgroundImageFix" result="shape"/><feGaussianBlur stdDeviation="5.4" result="effect1_foregroundBlur_693_14740"/></filter></defs><script/></svg>
